svgs/duotone/wine-glass-empty.svg

<svg xmlns="http://www.w3.org/2000/svg" viewBox="0 0 320 512"><!-- Font Awesome Pro 6.0.0-alpha2 by @fontawesome - https://fontawesome.com License - https://fontawesome.com/license (Commercial License) --><defs><style>.fa-secondary{opacity:.4}</style></defs><path d="M232.015 464H192.007V346.75C260.521 330.875 310.032 266.875 303.405 192.625L287.527 14.5C286.777 6.25 279.901 0 271.774 0H48.226C40.1 0 33.223 6.25 32.473 14.5L16.595 192.625C9.968 266.875 59.479 330.875 127.993 346.875V464H87.985C65.855 464 47.976 481.875 47.976 504C47.976 508.375 51.602 512 55.978 512H264.022C268.398 512 272.024 508.375 272.024 504C272.024 481.875 254.145 464 232.015 464ZM180.391 300.17C166.746 303.33 152.555 303.318 138.913 300.133C91.88 289.15 60.106 245.232 64.394 197.135L77.688 48H242.312L255.62 197.277C259.898 245.289 228.134 289.111 181.167 299.99L180.391 300.17Z" class="fa-secondary"/></svg>

<svg xmlns="http://www.w3.org/2000/svg" viewBox="0 0 320 512"><!--! Font Awesome Pro 6.3.0 by @fontawesome - https://fontawesome.com License - https://fontawesome.com/license (Commercial License) Copyright 2023 Fonticons, Inc. --><defs><style>.fa-secondary{opacity:.4}</style></defs><path class="fa-secondary" d="M232 464h-40.01v-117.3c68.51-15.88 118-79.86 111.4-154.1L287.5 14.5C286.8 6.25 279.9 0 271.8 0H48.23C40.1 0 33.22 6.25 32.47 14.5L16.6 192.6c-6.626 74.25 42.88 138.2 111.4 154.2V464H87.98c-22.13 0-40.01 17.88-40.01 40c0 4.375 3.626 8 8.002 8h208c4.376 0 8.002-3.625 8.002-8C272 481.9 254.1 464 232 464zM180.4 300.2C166.7 303.3 152.6 303.3 138.9 300.1c-47.03-10.98-78.82-54.95-74.53-103L77.7 48h164.6L255.6 197.2c4.278 48.01-27.5 91.93-74.46 102.8L180.4 300.2z"/></svg>
